; generated by SuperSlicer 2.3.56 on 2021-08-28 at 08:17:03 UTC


;
;

;
;
; 

; external perimeters extrusion width = 0.60mm
; perimeters extrusion width = 0.50mm
; infill extrusion width = 0.50mm
; solid infill extrusion width = 0.50mm
; top infill extrusion width = 0.45mm
; first layer extrusion width = 0.42mm

; object:{"name":"square_tower","id":"square_tower.stl id:0 copy 0","object_center":[125.000000,105.000000,0.000000],"boundingbox_center":[125.000000,105.000000,25.000000],"boundingbox_size":[66.000000,65.945206,50.000000]}
; plater:{"center":[125.000000,105.000000,0.000000],"boundingbox_center":[125.000000,105.000000,25.000000],"boundingbox_size":[66.000000,65.945206,50.000000]}

M73 P0 R31
;TYPE:Custom
_DISPLAY_PLATE
SET_GCODE_VARIABLE MACRO=START_PRINT VARIABLE=BED_TEMP VALUE=80
SET_GCODE_VARIABLE MACRO=START_PRINT VARIABLE=EXTRUDER_TEMP VALUE=225
PRINTING_FEATURE_ON
M104 S0
M140 S0
START_PRINT
M107
G21 ; set units to millimeters
G90 ; use absolute coordinates
M83 ; use relative distances for extrusion

SET_PRESSURE_ADVANCE ADVANCE=0.0660 ADVANCE_LOOKAHEAD_TIME=0.010 ; Redline
M107
;LAYER_CHANGE
;Z:0.2
;HEIGHT:0.2
;BEFORE_LAYER_CHANGE
G92 E0.0
;0.2


G1 Z0.200000 F10800
;AFTER_LAYER_CHANGE
;0.2
G1 E-0.40000 F3600
G1 Z0.800000 F10800
G1 X91.295 Y72.574
G1 Z0.200000
G1 E0.40000 F1800
PRINTING_FEATURE TYPE=Skirt
;TYPE:Skirt
;WIDTH:0.5
G1 F1200
G1 X92.190 Y71.604 E0.04765
G1 X93.433 Y70.713 E0.05522
G1 X94.797 Y70.116 E0.05377
G1 X96.379 Y69.801 E0.05826
G1 X153.526 Y69.799 E2.06334
G1 X155.443 Y70.205 E0.07074
G1 X156.664 Y70.770 E0.04858
G1 X157.960 Y71.748 E0.05864
G1 X158.860 Y72.768 E0.04912
G1 X159.603 Y74.059 E0.05377
G1 X160.066 Y75.475 E0.05376
G1 X160.222 Y76.829 E0.04925
G1 X160.228 Y133.055 E2.03009
G1 X160.074 Y134.488 E0.05201
G1 X159.672 Y135.768 E0.04845
G1 X158.705 Y137.426 E0.06930
G1 X157.807 Y138.398 E0.04778
G1 X156.557 Y139.292 E0.05549
G1 X155.193 Y139.888 E0.05376
G1 X153.554 Y140.201 E0.06023
G1 X96.411 Y140.200 E2.06321
G1 X94.574 Y139.802 E0.06786
G1 X93.364 Y139.248 E0.04806
G1 X92.169 Y138.377 E0.05337
G1 X91.153 Y137.250 E0.05483
G1 X90.398 Y135.944 E0.05443
G1 X89.930 Y134.508 E0.05456
G1 X89.772 Y133.031 E0.05364
G1 X89.772 Y76.945 E2.02504
G1 X89.926 Y75.513 E0.05201
G1 X90.328 Y74.232 E0.04845
G1 X91.265 Y72.626 E0.06714
; INIT printing object square_tower.stl id:0 copy 0
M104 S225 ; set temperature
G1 E-0.40000 F3600
G1 Z0.800000 F10800
; printing object square_tower.stl id:0 copy 0
G1 X123.213 Y79.213
G1 Z0.200000
G1 E0.40000 F1800
PRINTING_FEATURE TYPE=Perimeter
;TYPE:Internal perimeter
;WIDTH:0.42
G1 F1200
G1 X99.213 Y79.213 E0.71488
G1 X99.213 Y99.213 E0.59573
G1 X98.713 Y99.213 E0.01489
G1 X98.713 Y102.787 E0.10646
G1 X99.213 Y102.787 E0.01489
G1 X99.213 Y130.787 E0.83402
M73 P1 R31
G1 X123.213 Y130.787 E0.71488
G1 X123.213 Y131.287 E0.01489
G1 X126.787 Y131.287 E0.10646
G1 X126.787 Y130.787 E0.01489
G1 X150.787 Y130.787 E0.71488
G1 X150.787 Y106.787 E0.71488
G1 X151.287 Y106.787 E0.01489
G1 X151.287 Y103.213 E0.10646
G1 X150.787 Y103.213 E0.01489
G1 X150.787 Y79.213 E0.71488
G1 X126.787 Y79.213 E0.71488
G1 X126.787 Y78.713 E0.01489
G1 X123.213 Y78.713 E0.10646
G1 X123.213 Y79.153 E0.01311
G1 X123.590 Y79.590 F10800
PRINTING_FEATURE TYPE=ExternalPerimeter
;TYPE:External perimeter
G1 F1200
G1 X99.590 Y79.590 E0.71488
G1 X99.590 Y99.590 E0.59573
G1 X99.090 Y99.590 E0.01489
G1 X99.090 Y102.410 E0.08400
G1 X99.590 Y102.410 E0.01489
G1 X99.590 Y130.410 E0.83402
G1 X123.590 Y130.410 E0.71488
G1 X123.590 Y130.910 E0.01489
G1 X126.410 Y130.910 E0.08400
G1 X126.410 Y130.410 E0.01489
G1 X150.410 Y130.410 E0.71488
G1 X150.410 Y106.410 E0.71488
G1 X150.910 Y106.410 E0.01489
G1 X150.910 Y103.590 E0.08400
G1 X150.410 Y103.590 E0.01489
G1 X150.410 Y79.590 E0.71488
G1 X126.410 Y79.590 E0.71488
M73 P2 R31
G1 X126.410 Y79.090 E0.01489
G1 X123.590 Y79.090 E0.08400
G1 X123.590 Y79.530 E0.01311
G1 X123.244 Y79.390 F10800
G1 E-0.40000 F3600
G1 Z0.400000 F10800
G1 X101.007 Y75.787
G1 Z0.200000
G1 E0.40000 F1800
PRINTING_FEATURE TYPE=Perimeter
;TYPE:Internal perimeter
G1 F1200
G1 X148.992 Y75.787 E1.42932
G1 X149.155 Y75.289 E0.01562
G1 X149.462 Y74.756 E0.01831
G1 X149.595 Y74.526 E0.00791
G1 X149.773 Y74.329 E0.00791
G1 X150.184 Y73.872 E0.01829
G1 X150.681 Y73.511 E0.01829
G1 X150.896 Y73.355 E0.00792
G1 X151.457 Y73.105 E0.01829
G1 X151.699 Y72.997 E0.00791
G1 X151.959 Y72.942 E0.00791
G1 X152.560 Y72.814 E0.01829
G1 X153.440 Y72.814 E0.02620
G1 X153.700 Y72.870 E0.00792
G1 X154.301 Y72.997 E0.01829
G1 X154.543 Y73.105 E0.00791
G1 X155.104 Y73.355 E0.01829
G1 X155.319 Y73.511 E0.00792
G1 X155.816 Y73.872 E0.01829
G1 X156.227 Y74.329 E0.01829
G1 X156.405 Y74.526 E0.00791
G1 X156.712 Y75.058 E0.01829
G1 X156.845 Y75.288 E0.00791
G1 X157.034 Y75.872 E0.01829
G1 X157.117 Y76.125 E0.00791
G1 X157.144 Y76.389 E0.00791
G1 X157.209 Y77.000 E0.01829
G1 X157.144 Y77.611 E0.01829
G1 X157.117 Y77.875 E0.00791
G1 X157.034 Y78.128 E0.00791
G1 X156.845 Y78.712 E0.01829
G1 X156.712 Y78.942 E0.00791
G1 X156.405 Y79.474 E0.01829
G1 X156.227 Y79.671 E0.00791
G1 X155.816 Y80.128 E0.01829
G1 X155.104 Y80.645 E0.02621
G1 X154.930 Y80.722 E0.00569
G1 X154.213 Y81.042 E0.02338
G1 X154.213 Y128.958 E1.42728
G1 X154.930 Y129.278 E0.02338
G1 X155.104 Y129.355 E0.00569
G1 X155.601 Y129.716 E0.01829
G1 X155.816 Y129.872 E0.00791
G1 X156.227 Y130.329 E0.01829
G1 X156.405 Y130.526 E0.00791
G1 X156.712 Y131.058 E0.01829
G1 X156.845 Y131.288 E0.00791
G1 X156.927 Y131.541 E0.00791
G1 X157.034 Y131.872 E0.01038
G1 X157.117 Y132.125 E0.00791
G1 X157.181 Y132.736 E0.01829
G1 X157.209 Y133.000 E0.00791
G1 X157.144 Y133.611 E0.01829
G1 X157.117 Y133.875 E0.00792
G1 X156.927 Y134.459 E0.01829
G1 X156.845 Y134.712 E0.00791
G1 X156.712 Y134.942 E0.00791
G1 X156.405 Y135.474 E0.01829
G1 X156.227 Y135.671 E0.00791
G1 X155.816 Y136.128 E0.01829
G1 X155.319 Y136.489 E0.01829
G1 X155.104 Y136.645 E0.00792
G1 X154.543 Y136.895 E0.01829
G1 X154.301 Y137.003 E0.00791
G1 X153.700 Y137.130 E0.01829
G1 X153.440 Y137.186 E0.00792
G1 X152.560 Y137.186 E0.02621
G1 X152.300 Y137.130 E0.00792
G1 X151.699 Y137.003 E0.01829
G1 X151.457 Y136.895 E0.00791
G1 X150.896 Y136.645 E0.01829
G1 X150.681 Y136.489 E0.00792
G1 X150.184 Y136.128 E0.01829
G1 X149.773 Y135.671 E0.01829
G1 X149.595 Y135.474 E0.00791
G1 X149.288 Y134.942 E0.01829
G1 X149.155 Y134.711 E0.00793
G1 X148.992 Y134.213 E0.01562
G1 X101.007 Y134.213 E1.42933
G1 X100.845 Y134.712 E0.01563
G1 X100.538 Y135.244 E0.01829
G1 X100.405 Y135.474 E0.00791
G1 X99.994 Y135.930 E0.01829
G1 X99.816 Y136.128 E0.00791
G1 X99.319 Y136.489 E0.01829
G1 X99.104 Y136.645 E0.00791
G1 X98.543 Y136.895 E0.01829
G1 X98.301 Y137.003 E0.00791
G1 X97.700 Y137.130 E0.01829
G1 X97.440 Y137.186 E0.00791
G1 X96.560 Y137.186 E0.02621
G1 X96.300 Y137.130 E0.00791
G1 X95.699 Y137.003 E0.01829
G1 X95.457 Y136.895 E0.00791
G1 X94.896 Y136.645 E0.01829
G1 X94.681 Y136.489 E0.00791
G1 X94.184 Y136.128 E0.01829
G1 X94.006 Y135.930 E0.00791
G1 X93.595 Y135.474 E0.01829
G1 X93.288 Y134.942 E0.01829
G1 X93.155 Y134.712 E0.00791
G1 X92.883 Y133.875 E0.02621
G1 X92.856 Y133.611 E0.00791
G1 X92.791 Y133.000 E0.01829
G1 X92.819 Y132.736 E0.00791
G1 X92.883 Y132.125 E0.01829
G1 X93.073 Y131.541 E0.01829
G1 X93.155 Y131.288 E0.00791
G1 X93.462 Y130.756 E0.01829
G1 X93.595 Y130.526 E0.00791
G1 X94.006 Y130.070 E0.01829
G1 X94.184 Y129.872 E0.00791
G1 X94.681 Y129.511 E0.01829
G1 X94.896 Y129.355 E0.00791
G1 X95.070 Y129.278 E0.00569
G1 X95.787 Y128.958 E0.02338
G1 X95.787 Y81.042 E1.42728
G1 X95.070 Y80.722 E0.02338
G1 X94.896 Y80.645 E0.00569
G1 X94.399 Y80.284 E0.01829
G1 X94.184 Y80.128 E0.00791
G1 X94.006 Y79.930 E0.00791
G1 X93.595 Y79.474 E0.01829
G1 X93.288 Y78.942 E0.01829
G1 X93.155 Y78.712 E0.00791
G1 X92.965 Y78.128 E0.01829
G1 X92.883 Y77.875 E0.00791
G1 X92.791 Y77.000 E0.02621
G1 X92.856 Y76.389 E0.01829
G1 X92.883 Y76.125 E0.00791
G1 X92.965 Y75.872 E0.00791
G1 X93.155 Y75.288 E0.01829
G1 X93.288 Y75.058 E0.00791
G1 X93.595 Y74.526 E0.01829
G1 X93.773 Y74.329 E0.00791
G1 X94.184 Y73.872 E0.01829
G1 X94.681 Y73.511 E0.01829
G1 X94.896 Y73.355 E0.00791
G1 X95.457 Y73.105 E0.01829
G1 X95.699 Y72.997 E0.00791
G1 X95.959 Y72.942 E0.00791
G1 X96.560 Y72.814 E0.01829
G1 X97.440 Y72.814 E0.02621
G1 X98.041 Y72.942 E0.01829
G1 X98.301 Y72.997 E0.00791
G1 X98.543 Y73.105 E0.00791
G1 X99.104 Y73.355 E0.01829
G1 X99.319 Y73.511 E0.00791
G1 X99.816 Y73.872 E0.01829
G1 X99.994 Y74.070 E0.00791
G1 X100.405 Y74.526 E0.01829
G1 X100.712 Y75.058 E0.01829
G1 X100.845 Y75.288 E0.00791
G1 X100.988 Y75.730 E0.01384
G1 X101.281 Y75.410 F10800
PRINTING_FEATURE TYPE=ExternalPerimeter
;TYPE:External perimeter
G1 F1200
G1 X148.719 Y75.410 E1.41301
M73 P2 R30
G1 X148.809 Y75.134 E0.00864
G1 X149.136 Y74.568 E0.01948
G1 X149.288 Y74.303 E0.00909
G1 X149.493 Y74.076 E0.00909
G1 X149.930 Y73.591 E0.01947
G1 X150.459 Y73.206 E0.01947
G1 X150.706 Y73.027 E0.00910
G1 X151.303 Y72.761 E0.01947
G1 X151.582 Y72.637 E0.00909
G1 X151.881 Y72.573 E0.00910
G1 X152.520 Y72.437 E0.01947
G1 X153.480 Y72.437 E0.02857
G1 X154.119 Y72.573 E0.01947
G1 X154.418 Y72.637 E0.00910
G1 X154.697 Y72.761 E0.00909
G1 X155.294 Y73.027 E0.01947
G1 X155.541 Y73.206 E0.00910
G1 X156.070 Y73.591 E0.01947
G1 X156.507 Y74.076 E0.01947
G1 X156.712 Y74.303 E0.00909
G1 X157.038 Y74.870 E0.01947
G1 X157.191 Y75.134 E0.00909
G1 X157.393 Y75.756 E0.01947
G1 X157.487 Y76.046 E0.00910
G1 X157.519 Y76.350 E0.00910
G1 X157.588 Y77.000 E0.01947
G1 X157.519 Y77.650 E0.01947
G1 X157.487 Y77.954 E0.00910
G1 X157.393 Y78.244 E0.00910
G1 X157.191 Y78.866 E0.01947
G1 X157.038 Y79.130 E0.00909
G1 X156.712 Y79.697 E0.01947
G1 X156.507 Y79.924 E0.00909
G1 X156.070 Y80.409 E0.01947
G1 X155.294 Y80.973 E0.02857
G1 X155.083 Y81.067 E0.00687
G1 X154.590 Y81.286 E0.01608
G1 X154.590 Y128.714 E1.41269
M73 P3 R30
G1 X155.083 Y128.933 E0.01608
G1 X155.294 Y129.027 E0.00687
G1 X155.823 Y129.411 E0.01947
G1 X156.070 Y129.591 E0.00910
G1 X156.274 Y129.818 E0.00909
G1 X156.712 Y130.303 E0.01947
G1 X157.038 Y130.870 E0.01947
G1 X157.191 Y131.134 E0.00909
G1 X157.285 Y131.424 E0.00909
G1 X157.487 Y132.046 E0.01947
G1 X157.556 Y132.696 E0.01947
G1 X157.588 Y133.000 E0.00909
G1 X157.519 Y133.650 E0.01947
G1 X157.487 Y133.954 E0.00910
G1 X157.393 Y134.244 E0.00909
G1 X157.191 Y134.866 E0.01947
G1 X157.038 Y135.130 E0.00909
G1 X156.712 Y135.697 E0.01947
G1 X156.507 Y135.924 E0.00909
G1 X156.070 Y136.409 E0.01947
G1 X155.541 Y136.794 E0.01947
G1 X155.294 Y136.973 E0.00910
G1 X154.697 Y137.239 E0.01947
G1 X154.418 Y137.363 E0.00909
G1 X153.778 Y137.499 E0.01947
G1 X153.480 Y137.563 E0.00910
G1 X152.520 Y137.563 E0.02857
G1 X152.222 Y137.499 E0.00910
G1 X151.582 Y137.363 E0.01947
G1 X151.303 Y137.239 E0.00909
G1 X150.706 Y136.973 E0.01947
G1 X150.177 Y136.589 E0.01947
G1 X149.930 Y136.409 E0.00909
G1 X149.493 Y135.924 E0.01947
G1 X149.288 Y135.697 E0.00909
G1 X148.962 Y135.130 E0.01947
G1 X148.809 Y134.866 E0.00910
G1 X148.719 Y134.590 E0.00864
G1 X101.281 Y134.590 E1.41302
G1 X101.191 Y134.866 E0.00865
G1 X100.864 Y135.432 E0.01947
G1 X100.712 Y135.697 E0.00909
G1 X100.274 Y136.182 E0.01947
G1 X100.070 Y136.409 E0.00909
G1 X99.541 Y136.794 E0.01947
G1 X99.294 Y136.973 E0.00910
G1 X98.697 Y137.239 E0.01947
G1 X98.418 Y137.363 E0.00909
G1 X97.778 Y137.499 E0.01947
G1 X97.480 Y137.563 E0.00910
G1 X96.520 Y137.563 E0.02857
G1 X96.222 Y137.499 E0.00910
G1 X95.582 Y137.363 E0.01947
G1 X95.303 Y137.239 E0.00909
G1 X94.706 Y136.973 E0.01947
G1 X94.459 Y136.794 E0.00910
G1 X93.930 Y136.409 E0.01947
G1 X93.726 Y136.182 E0.00909
G1 X93.288 Y135.697 E0.01947
G1 X92.962 Y135.130 E0.01947
G1 X92.809 Y134.866 E0.00909
G1 X92.513 Y133.954 E0.02857
G1 X92.481 Y133.650 E0.00910
G1 X92.412 Y133.000 E0.01947
G1 X92.481 Y132.350 E0.01947
G1 X92.513 Y132.046 E0.00910
G1 X92.715 Y131.424 E0.01947
G1 X92.809 Y131.134 E0.00909
G1 X93.136 Y130.568 E0.01947
G1 X93.288 Y130.303 E0.00909
G1 X93.726 Y129.818 E0.01947
G1 X93.930 Y129.591 E0.00909
G1 X94.459 Y129.206 E0.01947
G1 X94.706 Y129.027 E0.00909
G1 X94.917 Y128.933 E0.00687
G1 X95.410 Y128.714 E0.01608
G1 X95.410 Y81.286 E1.41269
G1 X94.917 Y81.067 E0.01608
G1 X94.706 Y80.973 E0.00687
G1 X94.177 Y80.589 E0.01947
G1 X93.930 Y80.409 E0.00910
G1 X93.726 Y80.182 E0.00909
G1 X93.288 Y79.697 E0.01947
G1 X92.962 Y79.130 E0.01947
G1 X92.809 Y78.866 E0.00910
G1 X92.607 Y78.244 E0.01947
G1 X92.513 Y77.954 E0.00909
G1 X92.412 Y77.000 E0.02857
G1 X92.481 Y76.350 E0.01947
G1 X92.513 Y76.046 E0.00909
G1 X92.607 Y75.756 E0.00909
G1 X92.809 Y75.134 E0.01947
G1 X92.962 Y74.870 E0.00909
G1 X93.288 Y74.303 E0.01947
G1 X93.493 Y74.076 E0.00909
G1 X93.930 Y73.591 E0.01947
G1 X94.459 Y73.206 E0.01947
G1 X94.706 Y73.027 E0.00909
G1 X95.303 Y72.761 E0.01947
G1 X95.582 Y72.637 E0.00909
G1 X95.881 Y72.573 E0.00909
G1 X96.520 Y72.437 E0.01947
G1 X97.480 Y72.437 E0.02857
G1 X98.119 Y72.573 E0.01947
G1 X98.418 Y72.637 E0.00909
G1 X99.015 Y72.903 E0.01947
G1 X99.294 Y73.027 E0.00909
G1 X99.541 Y73.206 E0.00909
G1 X100.070 Y73.591 E0.01947
G1 X100.274 Y73.818 E0.00909
G1 X100.712 Y74.303 E0.01947
G1 X101.038 Y74.870 E0.01947
G1 X101.191 Y75.134 E0.00909
G1 X101.262 Y75.353 E0.00686
G1 X101.323 Y75.808 F10800
G1 E-0.40000 F3600
G1 Z0.400000 F10800
G1 X154.075 Y73.065
G1 Z0.200000
G1 E0.40000 F1800
PRINTING_FEATURE TYPE=SolidInfill
;TYPE:Solid infill
;WIDTH:0.425385
G1 X156.667 Y75.657 E0.11060
G1 X156.838 Y76.184 E0.01671
G1 X156.859 Y76.383 E0.00602
G1 X153.618 Y73.141 E0.13829
G1 X153.410 Y73.097 E0.00641
G1 X153.041 Y73.097 E0.01115
G1 X156.922 Y76.979 E0.16560
G1 X156.924 Y77.000 E0.00065
G1 X156.875 Y77.465 E0.01411
G1 X152.522 Y73.112 E0.18574
G1 X152.082 Y73.205 E0.01356
G1 X156.803 Y77.926 E0.20141
G1 X156.672 Y78.328 E0.01277
G1 X151.666 Y73.322 E0.21359
G1 X151.297 Y73.486 E0.01219
G1 X156.520 Y78.709 E0.22284
G1 X156.324 Y79.047 E0.01178
G1 X150.946 Y73.669 E0.22949
G1 X150.637 Y73.893 E0.01152
G1 X156.116 Y79.372 E0.23377
G1 X155.863 Y79.653 E0.01139
G1 X150.336 Y74.126 E0.23580
G1 X150.084 Y74.406 E0.01139
G1 X155.607 Y79.930 E0.23566
G1 X155.298 Y80.154 E0.01152
G1 X149.831 Y74.687 E0.23326
G1 X149.825 Y74.693 E0.00026
G1 X149.634 Y75.024 E0.01151
G1 X154.989 Y80.379 E0.22846
G1 X154.962 Y80.398 E0.00102
G1 X154.626 Y80.548 E0.01111
G1 X149.439 Y75.362 E0.22128
G1 X149.415 Y75.405 E0.00149
G1 X149.300 Y75.756 E0.01115
G1 X154.257 Y80.713 E0.21148
G1 X153.930 Y80.858 E0.01078
G1 X153.930 Y80.919 E0.00185
G1 X149.081 Y76.070 E0.20690
G1 X148.547 Y76.070 E0.01609
G1 X153.930 Y81.453 E0.22965
G1 X153.930 Y81.986 E0.01609
G1 X148.014 Y76.070 E0.25240
G1 X147.481 Y76.070 E0.01609
G1 X150.341 Y78.930 E0.12203
G1 X149.808 Y78.930 E0.01609
G1 X146.948 Y76.070 E0.12203
G1 X146.414 Y76.070 E0.01609
G1 X149.275 Y78.930 E0.12203
G1 X148.741 Y78.930 E0.01609
G1 X145.881 Y76.070 E0.12203
G1 X145.348 Y76.070 E0.01609
G1 X148.208 Y78.930 E0.12203
G1 X147.675 Y78.930 E0.01609
G1 X144.815 Y76.070 E0.12203
G1 X144.281 Y76.070 E0.01609
G1 X147.142 Y78.930 E0.12203
G1 X146.608 Y78.930 E0.01609
G1 X143.748 Y76.070 E0.12203
G1 X143.215 Y76.070 E0.01609
G1 X146.075 Y78.930 E0.12203
G1 X145.542 Y78.930 E0.01609
G1 X142.681 Y76.070 E0.12203
G1 X142.148 Y76.070 E0.01609
G1 X145.008 Y78.930 E0.12203
G1 X144.475 Y78.930 E0.01609
G1 X141.615 Y76.070 E0.12203
G1 X141.082 Y76.070 E0.01609
G1 X143.942 Y78.930 E0.12203
G1 X143.409 Y78.930 E0.01609
G1 X140.548 Y76.070 E0.12203
G1 X140.015 Y76.070 E0.01609
G1 X142.875 Y78.930 E0.12203
G1 X142.342 Y78.930 E0.01609
G1 X139.482 Y76.070 E0.12203
G1 X138.949 Y76.070 E0.01609
G1 X141.809 Y78.930 E0.12203
G1 X141.276 Y78.930 E0.01609
G1 X138.415 Y76.070 E0.12203
G1 X137.882 Y76.070 E0.01609
G1 X140.742 Y78.930 E0.12203
G1 X140.209 Y78.930 E0.01609
M73 P4 R30
G1 X137.349 Y76.070 E0.12203
G1 X136.816 Y76.070 E0.01609
G1 X139.676 Y78.930 E0.12203
G1 X139.142 Y78.930 E0.01609
G1 X136.282 Y76.070 E0.12203
G1 X135.749 Y76.070 E0.01609
G1 X138.609 Y78.930 E0.12203
G1 X138.076 Y78.930 E0.01609
G1 X135.216 Y76.070 E0.12203
G1 X134.682 Y76.070 E0.01609
G1 X137.543 Y78.930 E0.12203
